X:13
T:
S:Efter Anna Didriksson, Österlings i Stånga.
M:3/4
L:1/8
K:F
G|F> A d d d A|G F E2 z F|
w:Dä raid ’n rid-da-rä up-pa a ägg, han
G> F E> F G A|B2 A2 z G|
w:räi-dä, män han räi-dä sak-tä. Så
F> A d2 d c|B B e3 d|
w:komm a jåm-fräu i flyg u flägg, han
c> B A A B c|d2 d2 z|]
w:hän-nä ju-ve-lit bi-trak-tä.
